X: 3
T: The Coming Of Spring
R: jig
M: 6/8
L: 1/8
K: Emin
|:A|BEE B2A|BdB BAG|FEF DFA|dfe dBA|
BEE B2A|Bef gfe|dc/B/A FGA|BGE E2:||
|:F|GEF G2A|B2A Bec|dAA BAG|F3 DEF|
G2E FGA|Bef gfe|dc/B/A FGA|BEE E2:||
|:e/f/|g2e eBe|geg bag|f2d dB/c/d|AFA def|
|1g2e eBe|geg bag|fed fg/a/f|ged e2f:|
|2g2e fed|Bec dfe|dc/B/A FGA|BGE E2||


Tune 2403	Setting 2403

